X:1
T: Reel Set #2
T: Marchy, Bouncy Reels
P: The Rose Tree
C: NE Fiddler's Rep., arr. T. Traub 5-20-02
Z: NE Fiddlers Repertoire
M: C
L: 1/4
K: D
|: f/e/|"D"d B A F| "D"A/B/A/F/ A F/A/|"D"d d "G"e d/e/|"A"f e e/g/f/e/|"D"d B A F|
"D"A/B/A/F/ A F/A/|"G"d d "A"e d/e/|"D"f d d :||: e |"D"f>e f g |"D"a2 g f|
"Em"e b b>a|"A"b e e/g/f/e/|"D"d B A F| "D"A/B/A/F/ A F/A/|"G"d d "A"e d/e/|"D"f d d :|
